contributed-vectors/learn_anywhere.svg

<svg xmlns="http://www.w3.org/2000/svg" width="192" height="192" fill="none"><g clip-path="url(#a)"><g clip-path="url(#b)"><path fill="#9ABEFF" d="m144.2 82.8-69.9-59C61.2 12.7 41 22.1 41 39.3V143h27.3c3.8 0 6.9 3.1 6.9 6.9V172l69-58.2c9.6-8.1 9.6-22.9 0-31Zm-30 22.3-30.6 25.8c-5.8 4.9-14.6.8-14.6-6.8V72.5c0-7.5 8.8-11.7 14.6-6.8l30.6 25.8c4.2 3.6 4.2 10 0 13.6Z"/><path fill="#F9DE81" d="M75.2 149.9V172L41 143h27.3c3.8 0 6.9 3.1 6.9 6.9Z"/></g></g><defs><clipPath id="a"><path fill="#fff" d="M0 0h192v192H0z"/></clipPath><clipPath id="b"><path fill="#fff" d="M41 19h110.4v153H41z"/></clipPath></defs></svg>

<svg width="192" height="192" viewBox="0 0 192 192" fill="none" xmlns="http://www.w3.org/2000/svg">
<g clip-path="url(#clip0)">
<g clip-path="url(#clip1)">
<path d="M144.2 82.8L74.3 23.8C61.2 12.7 41 22.1 41 39.3V143H68.3C72.1 143 75.2 146.1 75.2 149.9V172L144.2 113.8C153.8 105.7 153.8 90.9 144.2 82.8ZM114.2 105.1L83.6 130.9C77.8 135.8 69 131.7 69 124.1V72.5C69 65 77.8 60.8 83.6 65.7L114.2 91.5C118.4 95.1 118.4 101.5 114.2 105.1Z" fill="#9ABEFF"/>
<path d="M75.2 149.9V172L41 143H68.3C72.1 143 75.2 146.1 75.2 149.9Z" fill="#F9DE81"/>
</g>
</g>
<defs>
<clipPath id="clip0">
<rect width="192" height="192" fill="white"/>
</clipPath>
<clipPath id="clip1">
<rect width="110.4" height="153" fill="white" transform="translate(41 19)"/>
</clipPath>
</defs>
</svg>
